X:81
T:Dan Collins' Father's Jig
T:Bill Collins' Jig
R:jig
D:De Danann: Song for Ireland
D:Jerry Holland: The Fiddlesticks Collection
Z:id:hn-jig-81
M:6/8
K:D
dAA BAB|def a2f|aba fge|dBB gfe|dAA BAB|def a2f|aba faf|1 edc d2A:|2 edc d2e||
|:faa fab|afe fef|~a3 fge|dBB gfe|dAA BAB|def a2f|aba faf|1 edc d2e:|2 edc d2A||
<end>
<start>
